svgs/duckduckgo.svg

<svg width="192" height="192" viewBox="0 0 192 192" fill="none" xmlns="http://www.w3.org/2000/svg">
<path d="M96.0001 170C136.869 170 170 136.869 170 96C170 55.1309 136.869 22 96.0001 22C55.131 22 22.0001 55.1309 22.0001 96C22.0001 136.869 55.131 170 96.0001 170Z" stroke="black" stroke-width="12" stroke-linecap="round" stroke-linejoin="round"/>
<path d="M80 166L64.8442 94.3542C61.3181 77.6857 74.0329 62 91.0702 62V62C103.371 62 114.093 70.3716 117.076 82.3049L118 86C124 114 90 100 98 126C106 152 114 164 114 164" stroke="black" stroke-width="12" stroke-linecap="round" stroke-linejoin="round"/>
<path d="M90 62C88 54 80 50 72 50" stroke="black" stroke-width="12" stroke-linecap="round" stroke-linejoin="round"/>
<path d="M118 100C124 100 132 98 138 94" stroke="black" stroke-width="12" stroke-linecap="round" stroke-linejoin="round"/>
<path d="M104 112C110 116 120 118 131 116" stroke="black" stroke-width="12" stroke-linecap="round" stroke-linejoin="round"/>
</svg>

<svg width="192" height="192" viewBox="0 0 192 192" fill="none" xmlns="http://www.w3.org/2000/svg"><path d="M96 170c40.869 0 74-33.131 74-74 0-40.87-33.131-74-74-74S22 55.13 22 96c0 40.869 33.131 74 74 74Z" stroke="#000" stroke-width="12" stroke-linecap="round" stroke-linejoin="round"/><path d="M80 166 64.844 94.354C61.318 77.686 74.033 62 91.07 62v0c12.301 0 23.023 8.372 26.006 20.305L118 86c6 28-28 14-20 40s16 38 16 38M90 62c-2-8-10-12-18-12" stroke="#000" stroke-width="12" stroke-linecap="round" stroke-linejoin="round"/><path d="M118 100c6 0 14-2 20-6M104 112c6 4 16 6 27 4" stroke="#000" stroke-width="12" stroke-linecap="round" stroke-linejoin="round"/></svg>
